X:1
T:Title
%%score { ( 1 3 ) | 2 }
L:1/8
M:4/4
K:G
V:1 treble nm="Grand Piano"
V:3 treble 
V:2 treble 
V:1
 z4 z2[Q:1/4=100] d2 | d3 B B2 G2 | [EG]3 [CE] [CE]2 [EG]2 | D2 G2 B2 d2 | d4 A2 [Fd]2 | %5
 d3 B B2 G2 | [EG]3 [CE] [CE]2 [Ec]2 | [DB]2 [Gd]2 [FB]3 [FA] |[M:3/4] G6 |[M:1/4] d2 | %10
[M:4/4] [Ge]4 [Gc]2 [Ge]2 | d4 B2 G2 | G2 G2 c2 B2 | [GB]4 [FA]2 [Fd]2 | d3 B B2 G2 | %15
 [EG]3 [CE] [CE]2 [Ec]2 | [DB]2 [Gd]2 [FB]3 [FA] |[M:3/4] G6 |] %18
V:2
 z4 z2 [G,B,G]2 | [G,B,G]3 [G,DG] [G,DG]2 [G,B,D]2 | [C,C]3 [C,G,] [C,G,]2 [C,C]2 | %3
 [G,B,]2[K:treble] [G,B,D]2 [G,DG]2 [G,B,G]2 | [D,A,]6 [D,C]2 | %5
 [G,B,G]3 [G,DG] [G,DG]2[K:bass] [G,B,D]2 | [C,C]3 [C,G,] [C,G,]2 [C,G,]2 | %7
 [D,G,]2 [D,B,]2 [D,D]3 [D,C] |[M:3/4] [G,B,]6 |[M:1/4] [G,B,G]2 |[M:4/4] [C,C]4 [E,C]2 [C,C]2 | %11
 [G,B,G]4 [G,DG]2 [B,D]2 | [CE]2 [B,D]2 [A,DF]2 [G,DG]2 | [D,D]4 [D,D]2 [D,C]2 | %14
 [G,B,G]3 [G,DG] [G,DG]2[K:bass] [G,B,D]2 | [C,C]3 [C,G,] [C,G,]2 [C,G,]2 | %16
 [D,G,]2 [D,B,]2 [D,D]3 [D,C] |[M:3/4] [G,B,]6 |] %18
V:3
 x8 | x8 | x8 | x8 | F6 z2 | x8 | x8 | x8 |[M:3/4] x6 |[M:1/4] x2 |[M:4/4] x8 | x8 | x8 | x8 | x8 | %15
 x8 | x8 |[M:3/4] x6 |] %18

